_assets/images/flag-arizona.svg

<svg height="400" width="600" xmlns="http://www.w3.org/2000/svg"><path d="m0 0h600.02v200h-600.02z" fill="#fff22d"/><path d="m0 200h600v200h-600z" fill="#002868"/><path d="m261.44 200h-261.44v-59l227.84 38.63zm13.56-24.37-218.04-175.63h-56.96v71.01l251.98 104.62zm16.16-12.92-81.7-162.71h-68.31l141.41 173.75h5.04zm49.6-162.71-27.31 141.84-7.89-23.76-7.66 23.76-27.09-141.84zm259.24 72.05-246.68 103.58h-15.09l219.79-175.63h42zm0 69.47-214.35 36.68-35.58 21.8h249.93zm-269.88 33.74 143.05-175.26h-70.03l-84.05 164.12 3.7 11.14z" fill="#bb2440"/><path d="m346.19 223.12 65.74-48.49h-81.83l-24.54-73.94-23.86 73.94h-82.5l66.77 48.73-24.95 77.33 65.11-48.03 65.8 48.03z" fill="#a96a31"/></svg>

<svg xmlns="http://www.w3.org/2000/svg" width="600" height="400" viewBox="0 0 600 400"><path fill="#fff22d" d="M0 0h600.02v200H0z"/><path fill="#002868" d="M0 200h600v200H0z"/><path fill="#bb2440" d="M261.44 200H0v-59l227.84 38.63 33.6 20.37zM275 175.63L56.96 0H0v71.01l251.98 104.62H275zM291.16 162.71L209.46 0h-68.31l141.41 173.75h5.04l3.56-11.04zM340.76 0l-27.31 141.84-7.89-23.76-7.66 23.76L270.81 0h69.95zM600 72.05L353.32 175.63h-15.09L558.02 0h42L600 72.05zM600 141.52L385.65 178.2 350.07 200H600v-58.48zM330.12 175.26L473.17 0h-70.03l-84.05 164.12 3.7 11.14h7.33z"/><path fill="#a96a31" d="M346.19 223.12l65.74-48.49H330.1l-24.54-73.94-23.86 73.94h-82.5l66.77 48.73-24.95 77.33 65.11-48.03 65.8 48.03-25.74-77.57z"/></svg>
